X:1
T:Title
L:1/8
Q:1/4=90
M:6/8
K:G
V:1 treble nm="Church Organ, Staff"
V:1
 G d2 c_BA | G A2 G F2 | D G2 A_BA | G _B2 c d2 | d=f^d =dcd | _B A2 G =F2 | c_BA GFG | %7
w: By~Arthur~H.~Brown * * * *|||||||
 ^D =D2 D .D2 | DBA GFE | D G2 D E2 | FGA Bcd | e A2 A A2 | dcB c B2 | d e2 c A2 | BGF EGF | %15
w: ||||||||
 E G2- G E2 | C G2- G .G2 |] %17
w: ||

